assets/projectpropose/play.svg

<svg height="10" viewBox="0 0 10 10" width="10" xmlns="http://www.w3.org/2000/svg"><path d="m5 .15625c-2.67578125 0-4.84375 2.16796875-4.84375 4.84375s2.16796875 4.84375 4.84375 4.84375 4.84375-2.16796875 4.84375-4.84375-2.16796875-4.84375-4.84375-4.84375zm2.25976562 5.3125-3.4375 1.97265625c-.30859375.171875-.69726562-.04882813-.69726562-.41015625v-4.0625c0-.359375.38671875-.58203125.69726562-.41015625l3.4375 2.08984375c.3203125.1796875.3203125.64257812 0 .8203125z" fill="#292346"/></svg>

<?xml version="1.0" encoding="UTF-8"?>
<svg width="10px" height="10px" viewBox="0 0 10 10" version="1.1" xmlns="http://www.w3.org/2000/svg" xmlns:xlink="http://www.w3.org/1999/xlink">
    <!-- Generator: Sketch 56.3 (81716) - https://sketch.com -->
    <title>Mask</title>
    <desc>Created with Sketch.</desc>
    <defs>
        <path d="M5,0.15625 C2.32421875,0.15625 0.15625,2.32421875 0.15625,5 C0.15625,7.67578125 2.32421875,9.84375 5,9.84375 C7.67578125,9.84375 9.84375,7.67578125 9.84375,5 C9.84375,2.32421875 7.67578125,0.15625 5,0.15625 Z M7.25976562,5.46875 L3.82226562,7.44140625 C3.51367187,7.61328125 3.125,7.39257812 3.125,7.03125 L3.125,2.96875 C3.125,2.609375 3.51171875,2.38671875 3.82226562,2.55859375 L7.25976562,4.6484375 C7.58007812,4.828125 7.58007812,5.29101562 7.25976562,5.46875 Z" id="path-1"></path>
    </defs>
    <g id="Page-1" stroke="none" stroke-width="1" fill="none" fill-rule="evenodd">
        <g id="Artboard-Copy-10" transform="translate(-618.000000, -491.000000)">
            <g id="Group-7" transform="translate(303.000000, 50.000000)">
                <g id="Group-4" transform="translate(25.000000, 348.000000)">
                    <g id="Group-6">
                        <g id="button/text/tertiary/with-icon-copy-2" transform="translate(230.000000, 85.000000)">
                            <g id="Icon" transform="translate(60.000000, 8.000000)">
                                <mask id="mask-2" fill="white">
                                    <use xlink:href="#path-1"></use>
                                </mask>
                                <use id="Mask" fill="#292346" fill-rule="nonzero" xlink:href="#path-1"></use>
                            </g>
                        </g>
                    </g>
                </g>
            </g>
        </g>
    </g>
</svg>
